Simply-Black-Circles/scalable/apps/google-chrome-unstable.svg

<svg xmlns="http://www.w3.org/2000/svg" width="48" height="48" viewBox="0 0 12.7 12.7"><path d="M6.34.07a6.29 6.29 0 0 0-6.29 6.3 6.29 6.29 0 0 0 6.3 6.28 6.29 6.29 0 0 0 6.28-6.29A6.29 6.29 0 0 0 6.34.07zm-.01.94a5.4 5.4 0 0 1 5.4 5.4 5.4 5.4 0 0 1-5.4 5.41 5.4 5.4 0 0 1-5.41-5.4A5.4 5.4 0 0 1 6.32 1zM6.3 4.67a1.71 1.71 0 0 0-1.7 1.7A1.71 1.71 0 0 0 6.3 8.1a1.71 1.71 0 0 0 1.72-1.71A1.71 1.71 0 0 0 6.3 4.67z" fill="#1a1a1a"/><g fill="#a00"><path d="M6.33 1.58s2.8-.13 4.3 2.69H6.08s-.86-.03-1.59 1c-.21.44-.43.89-.18 1.77L2.38 3.7s1.11-2 3.95-2.11z"/><path d="M10.48 8.73s-1.3 2.49-4.49 2.37l2.27-3.92s.45-.73-.08-1.88c-.63-.91-1.27-1.07-1.99-1.04h4.42s1.19 1.96-.13 4.47z" opacity=".4"/><path d="M2.2 8.75s-1.52-2.37.18-5.06L4.65 7.6s.4.75 1.67.87c.48-.04.98-.07 1.62-.73C7.6 8.38 6 11.1 6 11.1s-2.29.04-3.8-2.35z" opacity=".7"/></g></svg>

<?xml version="1.0" encoding="UTF-8" standalone="no"?>
<svg
   xmlns:dc="http://purl.org/dc/elements/1.1/"
   xmlns:cc="http://creativecommons.org/ns#"
   xmlns:rdf="http://www.w3.org/1999/02/22-rdf-syntax-ns#"
   xmlns:svg="http://www.w3.org/2000/svg"
   xmlns="http://www.w3.org/2000/svg"
   xmlns:sodipodi="http://sodipodi.sourceforge.net/DTD/sodipodi-0.dtd"
   xmlns:inkscape="http://www.inkscape.org/namespaces/inkscape"
   width="48"
   height="48"
   viewBox="0 0 12.7 12.7"
   version="1.1"
   id="svg12"
   sodipodi:docname="google-chrome-unstable.svg"
   inkscape:version="0.92.4 (5da689c313, 2019-01-14)">
  <metadata
     id="metadata18">
    <rdf:RDF>
      <cc:Work
         rdf:about="">
        <dc:format>image/svg+xml</dc:format>
        <dc:type
           rdf:resource="http://purl.org/dc/dcmitype/StillImage" />
        <dc:title></dc:title>
      </cc:Work>
    </rdf:RDF>
  </metadata>
  <defs
     id="defs16" />
  <sodipodi:namedview
     pagecolor="#ffffff"
     bordercolor="#666666"
     borderopacity="1"
     objecttolerance="10"
     gridtolerance="10"
     guidetolerance="10"
     inkscape:pageopacity="0"
     inkscape:pageshadow="2"
     inkscape:window-width="1087"
     inkscape:window-height="480"
     id="namedview14"
     showgrid="false"
     inkscape:zoom="4.9166667"
     inkscape:cx="2.1355932"
     inkscape:cy="24"
     inkscape:window-x="0"
     inkscape:window-y="25"
     inkscape:window-maximized="0"
     inkscape:current-layer="svg12" />
  <path
     d="M 6.34,0.07 A 6.29,6.29 0 0 0 0.05,6.37 6.29,6.29 0 0 0 6.35,12.65 6.29,6.29 0 0 0 12.63,6.36 6.29,6.29 0 0 0 6.34,0.07 Z M 6.33,1.01 a 5.4,5.4 0 0 1 5.4,5.4 5.4,5.4 0 0 1 -5.4,5.41 A 5.4,5.4 0 0 1 0.92,6.42 5.4,5.4 0 0 1 6.32,1 Z M 6.3,4.67 A 1.71,1.71 0 0 0 4.6,6.37 1.71,1.71 0 0 0 6.3,8.1 1.71,1.71 0 0 0 8.02,6.39 1.71,1.71 0 0 0 6.3,4.67 Z"
     id="path2"
     inkscape:connector-curvature="0"
     style="fill:#1a1a1a" />
  <g
     id="g10"
     style="fill:#aa0000">
    <path
       d="m 6.33,1.58 c 0,0 2.8,-0.13 4.3,2.69 H 6.08 c 0,0 -0.86,-0.03 -1.59,1 C 4.28,5.71 4.06,6.16 4.31,7.04 L 2.38,3.7 c 0,0 1.11,-2 3.95,-2.11 z"
       id="path4"
       inkscape:connector-curvature="0" />
    <path
       d="m 10.48,8.73 c 0,0 -1.3,2.49 -4.49,2.37 L 8.26,7.18 C 8.26,7.18 8.71,6.45 8.18,5.3 7.55,4.39 6.91,4.23 6.19,4.26 h 4.42 c 0,0 1.19,1.96 -0.13,4.47 z"
       id="path6"
       inkscape:connector-curvature="0"
       style="opacity:0.4" />
    <path
       d="m 2.2,8.75 c 0,0 -1.52,-2.37 0.18,-5.06 L 4.65,7.6 c 0,0 0.4,0.75 1.67,0.87 C 6.8,8.43 7.3,8.4 7.94,7.74 7.6,8.38 6,11.1 6,11.1 6,11.1 3.71,11.14 2.2,8.75 Z"
       id="path8"
       inkscape:connector-curvature="0"
       style="opacity:0.7" />
  </g>
</svg>
